X: 32
T:Heave And Go
M:2/4
L:1/8
Q:200
K:G
AB|:"G"D2 D>-E|DG, "C"G>E|"G"DG, B,D|.B-G G-B:|
"G"d>c .Bd|dB "C"gz|"G"d>c .Bd|dB "C"gf/2e/2|
"G"d-g "D"fd|"C".ed "G"dB|"C"c>c "D"BA|"G"G2||
